packages/core/src/svgs/omni.svg

<svg width="24" height="24" viewBox="0 0 24 24" fill="none" xmlns="http://www.w3.org/2000/svg">
<g clip-path="url(#clip0_31_15380)">
<path d="M0 0H24V24H0V0Z" fill="#1D3F7B"/>
<path d="M18.4286 7.88429V5.57129H15.9947C16.8737 6.12843 17.8483 7.03357 18.4286 7.88429ZM8.07084 5.57129H5.57141V7.943C6.08827 6.96029 7.05598 6.06157 8.07084 5.57129ZM5.57141 16.0567V18.4284H8.03698C7.15498 17.8619 6.14827 16.9194 5.57141 16.0567ZM16.035 18.4284H18.4286V16.1154C17.8568 16.9529 16.8964 17.8743 16.035 18.4284Z" fill="white"/>
<path fill-rule="evenodd" clip-rule="evenodd" d="M11.8183 18.8574V18.8509C15.7063 18.8509 18.8571 15.7828 18.8571 11.9968C18.8571 8.21764 15.7063 5.14307 11.8183 5.14307C8.19897 5.33164 5.14282 8.32735 5.14282 12.0002C5.14282 15.6731 8.19897 18.6688 11.8183 18.8574ZM11.9931 6.85735C9.19196 6.86121 6.85325 9.20592 6.85711 12.0071C6.86097 14.8082 9.20568 17.1465 12.0068 17.1431C14.808 17.1392 17.1463 14.7945 17.1428 11.9934C17.1394 9.19221 14.7943 6.85349 11.9931 6.85735Z" fill="white"/>
</g>
<defs>
<clipPath id="clip0_31_15380">
<rect width="24" height="24" fill="white"/>
</clipPath>
</defs>
</svg>

<svg xmlns="http://www.w3.org/2000/svg" width="24" height="24" fill="none" viewBox="0 0 24 24"><g clip-path="url(#a)"><path fill="#1D3F7B" d="M0 0h24v24H0z"/><path fill="#fff" d="M18.429 7.884V5.571h-2.434c.879.557 1.853 1.463 2.434 2.313M8.07 5.571h-2.5v2.372c.517-.983 1.485-1.881 2.5-2.372m-2.5 10.486v2.371h2.466c-.882-.566-1.889-1.509-2.466-2.371m10.464 2.371h2.394v-2.313c-.572.838-1.533 1.76-2.394 2.313"/><path fill="#fff" fill-rule="evenodd" d="M11.818 18.857v-.006c3.888 0 7.04-3.068 7.04-6.854 0-3.78-3.152-6.854-7.04-6.854C8.2 5.332 5.143 8.327 5.143 12s3.056 6.669 6.675 6.857m.175-12c-2.801.004-5.14 2.349-5.136 5.15s2.349 5.14 5.15 5.136 5.14-2.349 5.136-5.15c-.004-2.8-2.349-5.14-5.15-5.136" clip-rule="evenodd"/></g><defs><clipPath id="a"><path fill="#fff" d="M0 0h24v24H0z"/></clipPath></defs></svg>
